X:154
T:James Cameron
M:C|
L:1/8
C:J.H.
R:March
K:G
DE|"G"G2 GF G2 gf|"C"Te2 d<e "G"B2 ge|d2 Tge "Em"d>B A<G|"Am"TB2 A2 "D"TA2 DE|
"G"G2 GF G2 gf|"C"Te2 d<e "G"B2 ge|"C"d2 ge "D"d>B A<c|"G"TB2 G2 G2:|
B|"C"c>c c<d "D"e2 d2|"G"e>d d<e B2 ge|d2 Tge "Em"d>B A<G|"Am"TB2 A2 "D"A3 B|
[1"C"c>c c<d "D"e2 d2|"G"e>d d<e B2 ge|"C"d2 Tge "D"d>B A<c|"G"B2 G2 G3:|
[2 "G"G2 GF G2 gf|"C"Te2 d<e "G"B2 ge|"C"d2 Tge "D"d>B A<c|"G"B2 G2 G2||
